svgs/duotone/piano.svg

<svg xmlns="http://www.w3.org/2000/svg" viewBox="0 0 512 512"><!-- Font Awesome Pro 6.0.0-alpha2 by @fontawesome - https://fontawesome.com License - https://fontawesome.com/license (Commercial License) --><defs><style>.fa-secondary{opacity:.4}</style></defs><path d="M0 480V352H64V448H448V352H512V480C512 497.625 497.625 512 480 512H32C14.375 512 0 497.625 0 480Z" class="fa-secondary"/><path d="M0 352V184.5C0 82.625 82.5 0 184.5 0H199.5C301.5 0 384 82.625 384 184.5C384 208.75 397.75 230.875 419.375 241.75L476.625 270.25C498.25 281.125 512 303.25 512 327.5V352H416V408C416 412.375 412.375 416 408 416H392C387.625 416 384 412.375 384 408V352H352V408C352 412.375 348.375 416 344 416H328C323.625 416 320 412.375 320 408V352H256V408C256 412.375 252.375 416 248 416H232C227.625 416 224 412.375 224 408V352H192V408C192 412.375 188.375 416 184 416H168C163.625 416 160 412.375 160 408V352H128V408C128 412.375 124.375 416 120 416H104C99.625 416 96 412.375 96 408V352H0Z" class="fa-primary"/></svg>

<svg xmlns="http://www.w3.org/2000/svg" viewBox="0 0 512 512"><!--! Font Awesome Pro 6.0.0-alpha3 by @fontawesome - https://fontawesome.com License - https://fontawesome.com/license (Commercial License) --><defs><style>.fa-secondary{opacity:.4}</style></defs><path class="fa-primary" d="M0 352V184.5C0 82.63 82.5 0 184.5 0h15C301.5 0 384 82.63 384 184.5c0 24.25 13.75 46.38 35.38 57.25l57.18 28.47C498.2 281.1 512 303.3 512 327.5V352h-96v56c0 4.375-3.625 8-8 8h-16C387.6 416 384 412.4 384 408V352h-32v56c0 4.375-3.625 8-8 8h-16C323.6 416 320 412.4 320 408V352h-64v56C256 412.4 252.4 416 248 416h-16C227.6 416 224 412.4 224 408V352H192v56C192 412.4 188.4 416 184 416h-16C163.6 416 160 412.4 160 408V352H128v56C128 412.4 124.4 416 120 416h-16C99.63 416 96 412.4 96 408V352H0z"/><path class="fa-secondary" d="M0 480v-128h64v96h384v-96h64v128c0 17.62-14.38 32-32 32H32C14.38 512 0 497.6 0 480z"/></svg>
